X:7060
T:Highgate Tunnell,bass part. JNu.45
M:6/8
L:1/8
Q:110
S:James Nuttall MS,c1830?,Rossendale,East Lancs.
O:England
A:East Lancashire
Z:Chris Partington
K:D
"secundo,read as bass clef"
z|Bdf Bdf|cef cef|AcfAcf|Bdf B2z|!
B3B2=B|c3C=EF|GAcc2C|FAcF3::!
Bdf Bdf|cef cef|Acf Acf|BdfB2z|
e2ec2z|d2dB2z|e2=ef2F|BdfB3:|]


